build/category/BoxesOutline.svg

<svg xmlns="http://www.w3.org/2000/svg" fill="none" viewBox="0 0 24 24" focusable="false"><path d="M0 0H24V24H0z"/><path fill="#74767B" fill-rule="evenodd" d="M14.8264 3.36997C14.6642 3.35672 14.362 3.3501 13.9196 3.3501L10.0796 3.3501C9.63723 3.3501 9.33497 3.35672 9.17284 3.36997C8.87082 3.39464 8.61799 3.45887 8.41433 3.56264C8.22624 3.65847 8.0612 3.77737 7.9192 3.91932C7.77717 4.06135 7.65803 4.22664 7.56215 4.41482C7.45838 4.61847 7.39416 4.87131 7.36948 5.17333C7.35623 5.33546 7.34961 5.63772 7.34961 6.0801L7.34961 9.9201C7.34961 10.3625 7.35623 10.6647 7.36948 10.8269C7.3854 11.0218 7.41779 11.1962 7.46665 11.3501L6.07961 11.3501C5.63723 11.3501 5.33497 11.3567 5.17284 11.37C4.87082 11.3946 4.61799 11.4589 4.41433 11.5626C4.22615 11.6585 4.06104 11.7775 3.91901 11.9195C3.77698 12.0615 3.65803 12.2266 3.56215 12.4148C3.45838 12.6185 3.39416 12.8713 3.36948 13.1733C3.35623 13.3355 3.34961 13.6377 3.34961 14.0801L3.34961 17.9201C3.34961 18.3625 3.35623 18.6647 3.36948 18.8269C3.39416 19.1289 3.45838 19.3817 3.56215 19.5854C3.65799 19.7735 3.77689 19.9385 3.91886 20.0805C4.06088 20.2226 4.22615 20.3417 4.41433 20.4376C4.61799 20.5413 4.87082 20.6056 5.17284 20.6302C5.33497 20.6435 5.63723 20.6501 6.07961 20.6501L9.91961 20.6501C10.362 20.6501 10.6642 20.6435 10.8264 20.6302C11.1284 20.6056 11.3812 20.5413 11.5849 20.4376C11.7385 20.3593 11.8767 20.2656 11.9996 20.1566C12.1225 20.2656 12.2607 20.3593 12.4143 20.4376C12.618 20.5413 12.8708 20.6056 13.1728 20.6302C13.335 20.6435 13.6372 20.6501 14.0796 20.6501L17.9196 20.6501C18.362 20.6501 18.6642 20.6435 18.8264 20.6302C19.1284 20.6056 19.3812 20.5413 19.5849 20.4376C19.7731 20.3417 19.9382 20.2227 20.0802 20.0807C20.2222 19.9387 20.3412 19.7736 20.4371 19.5854C20.5408 19.3817 20.6051 19.1289 20.6297 18.8269C20.643 18.6647 20.6496 18.3625 20.6496 17.9201L20.6496 14.0801C20.6496 13.6377 20.643 13.3355 20.6297 13.1733C20.6051 12.8713 20.5408 12.6185 20.4371 12.4148C20.3412 12.2266 20.2222 12.0615 20.0802 11.9195C19.9382 11.7775 19.7731 11.6585 19.5849 11.5626C19.3812 11.4589 19.1284 11.3946 18.8264 11.37C18.6642 11.3567 18.362 11.3501 17.9196 11.3501L16.5326 11.3501C16.5814 11.1962 16.6138 11.0218 16.6297 10.8269C16.643 10.6647 16.6496 10.3625 16.6496 9.9201L16.6496 6.0801C16.6496 5.63772 16.643 5.33546 16.6297 5.17333C16.6051 4.87131 16.5408 4.61847 16.4371 4.41482C16.3412 4.22664 16.2222 4.06153 16.0802 3.9195C15.9382 3.77747 15.7731 3.65852 15.5849 3.56263C15.3812 3.45887 15.1284 3.39464 14.8264 3.36997ZM10.0796 4.6501L13.9196 4.6501C14.3266 4.6501 14.5936 4.65528 14.7205 4.66565C14.8521 4.6764 14.9434 4.69483 14.9947 4.72094C15.0574 4.7529 15.1125 4.79256 15.1598 4.8399C15.2071 4.88721 15.2468 4.94236 15.2788 5.005C15.3049 5.05626 15.3233 5.14765 15.3341 5.27919C15.3444 5.4061 15.3496 5.67307 15.3496 6.0801L15.3496 9.9201C15.3496 10.3271 15.3444 10.5941 15.3341 10.721C15.3233 10.8525 15.3049 10.9439 15.2788 10.9952C15.2468 11.0579 15.2072 11.113 15.1598 11.1603C15.1125 11.2076 15.0574 11.2473 14.9947 11.2793C14.9435 11.3054 14.8521 11.3238 14.7205 11.3345C14.5936 11.3449 14.3266 11.3501 13.9196 11.3501L10.0796 11.3501C9.67258 11.3501 9.40561 11.3449 9.2787 11.3345C9.14716 11.3238 9.05577 11.3054 9.00451 11.2793C8.94179 11.2473 8.88675 11.2076 8.83941 11.1603C8.79207 11.113 8.75242 11.0579 8.72046 10.9952C8.69434 10.9439 8.67591 10.8525 8.66516 10.721C8.65479 10.5941 8.64961 10.3271 8.64961 9.9201L8.64961 6.0801C8.64961 5.67306 8.65479 5.4061 8.66516 5.27919C8.67591 5.14765 8.69434 5.05626 8.72046 5.005C8.75242 4.94228 8.79207 4.88724 8.83941 4.8399C8.88675 4.79256 8.94179 4.7529 9.00452 4.72094C9.05577 4.69483 9.14717 4.6764 9.2787 4.66565C9.40561 4.65528 9.67258 4.6501 10.0796 4.6501ZM12.9996 5.3501L10.9996 5.3501C10.6356 5.3501 10.3496 5.6361 10.3496 6.0001C10.3496 6.3641 10.6356 6.6501 10.9996 6.6501L12.9996 6.6501C13.3636 6.6501 13.6496 6.3641 13.6496 6.0001C13.6496 5.6361 13.3636 5.3501 12.9996 5.3501ZM11.3496 14.0801L11.3496 17.9201C11.3496 18.3271 11.3444 18.5941 11.3341 18.721C11.3233 18.8525 11.3049 18.9439 11.2788 18.9952C11.2468 19.0579 11.2072 19.113 11.1598 19.1603C11.1125 19.2076 11.0574 19.2473 10.9947 19.2793C10.9435 19.3054 10.8521 19.3238 10.7205 19.3345C10.5936 19.3449 10.3266 19.3501 9.91961 19.3501L6.07961 19.3501C5.67258 19.3501 5.40561 19.3449 5.2787 19.3345C5.14716 19.3238 5.05577 19.3054 5.00452 19.2793C4.94179 19.2473 4.88676 19.2076 4.83941 19.1603C4.79207 19.113 4.75242 19.0579 4.72046 18.9952C4.69434 18.9439 4.67591 18.8525 4.66516 18.721C4.65479 18.5941 4.64961 18.3271 4.64961 17.9201L4.64961 14.0801C4.64961 13.6731 4.65479 13.4061 4.66516 13.2792C4.67591 13.1477 4.69434 13.0563 4.72046 13.005C4.75242 12.9423 4.79207 12.8872 4.83941 12.8399C4.88675 12.7926 4.94179 12.7529 5.00452 12.7209C5.05577 12.6948 5.14716 12.6764 5.2787 12.6657C5.40561 12.6553 5.67258 12.6501 6.07961 12.6501L9.91961 12.6501C10.3266 12.6501 10.5936 12.6553 10.7205 12.6657C10.8521 12.6764 10.9434 12.6948 10.9947 12.7209C11.0574 12.7529 11.1125 12.7926 11.1598 12.8399C11.2072 12.8872 11.2468 12.9423 11.2788 13.005C11.3049 13.0563 11.3233 13.1477 11.3341 13.2792C11.3444 13.4061 11.3496 13.6731 11.3496 14.0801ZM12.6496 17.9201L12.6496 14.0801C12.6496 13.6731 12.6548 13.4061 12.6652 13.2792C12.6759 13.1477 12.6943 13.0563 12.7205 13.005C12.7524 12.9423 12.7921 12.8872 12.8394 12.8399C12.8868 12.7926 12.9418 12.7529 13.0045 12.7209C13.0558 12.6948 13.1472 12.6764 13.2787 12.6657C13.4056 12.6553 13.6726 12.6501 14.0796 12.6501L17.9196 12.6501C18.3266 12.6501 18.5936 12.6553 18.7205 12.6657C18.8521 12.6764 18.9434 12.6948 18.9947 12.7209C19.0574 12.7529 19.1125 12.7926 19.1598 12.8399C19.2071 12.8872 19.2468 12.9423 19.2788 13.005C19.3049 13.0563 19.3233 13.1477 19.3341 13.2792C19.3444 13.4061 19.3496 13.6731 19.3496 14.0801L19.3496 17.9201C19.3496 18.3271 19.3444 18.5941 19.3341 18.721C19.3233 18.8525 19.3049 18.9439 19.2788 18.9952C19.2468 19.0579 19.2072 19.113 19.1598 19.1603C19.1125 19.2076 19.0574 19.2473 18.9947 19.2793C18.9435 19.3054 18.8521 19.3238 18.7205 19.3345C18.5936 19.3449 18.3266 19.3501 17.9196 19.3501L14.0796 19.3501C13.6726 19.3501 13.4056 19.3449 13.2787 19.3345C13.1472 19.3238 13.0558 19.3054 13.0045 19.2793C12.9418 19.2473 12.8868 19.2076 12.8394 19.1603C12.7921 19.113 12.7524 19.0579 12.7205 18.9952C12.6943 18.9439 12.6759 18.8525 12.6652 18.721C12.6548 18.5941 12.6496 18.3271 12.6496 17.9201ZM8.99961 13.3501L6.99961 13.3501C6.63561 13.3501 6.34961 13.6361 6.34961 14.0001C6.34961 14.3641 6.63561 14.6501 6.99961 14.6501L8.99961 14.6501C9.36361 14.6501 9.64961 14.3641 9.64961 14.0001C9.64961 13.6361 9.36361 13.3501 8.99961 13.3501ZM14.9996 13.3501L16.9996 13.3501C17.3636 13.3501 17.6496 13.6361 17.6496 14.0001C17.6496 14.3641 17.3636 14.6501 16.9996 14.6501L14.9996 14.6501C14.6356 14.6501 14.3496 14.3641 14.3496 14.0001C14.3496 13.6361 14.6356 13.3501 14.9996 13.3501Z"/></svg>

<svg xmlns="http://www.w3.org/2000/svg" fill="none" viewBox="0 0 24 24" focusable="false"><path fill="#74767B" fill-rule="evenodd" d="M14.82 3.36c-.16-.01-.46-.01-.91-.01h-3.84c-.44 0-.74 0-.9.01-.3.03-.56.09-.76.2-.19.09-.35.21-.5.35-.14.15-.26.31-.35.5-.11.2-.17.46-.2.76-.01.16-.02.46-.02.91v3.84c0 .44.01.74.02.9.02.2.05.37.1.53H6.07c-.44 0-.74 0-.9.02-.3.02-.56.08-.76.19-.19.09-.35.21-.5.35-.14.15-.26.31-.35.5-.11.2-.17.46-.2.76-.01.16-.02.46-.02.91v3.84c0 .44.01.74.02.9.03.3.09.56.2.76.09.19.21.35.35.5.15.14.31.26.5.35.2.11.46.17.76.2.16.01.46.02.9.02h3.84c.45 0 .75-.01.91-.02.3-.03.56-.09.76-.2.15-.08.29-.17.41-.28.13.11.27.2.42.28.2.11.46.17.76.2.16.01.46.02.9.02h3.84c.45 0 .75-.01.91-.02.3-.03.56-.09.76-.2.19-.09.35-.21.5-.35.14-.15.26-.31.35-.5.11-.2.17-.46.19-.76.02-.16.02-.46.02-.9v-3.84c0-.45 0-.75-.02-.91-.02-.3-.08-.56-.19-.76-.09-.19-.21-.35-.35-.5-.15-.14-.31-.26-.5-.35-.2-.11-.46-.17-.76-.19-.16-.02-.46-.02-.91-.02h-1.38c.05-.16.08-.33.09-.53.02-.16.02-.46.02-.9V6.08c0-.45 0-.75-.02-.91-.02-.3-.08-.56-.19-.76-.09-.19-.21-.35-.35-.5-.15-.14-.31-.26-.5-.35-.2-.11-.46-.17-.76-.2m-4.75 1.29h3.84c.41 0 .68 0 .81.01q.195.015.27.06c.06.03.12.07.16.11.05.05.09.11.12.17q.045.075.06.27c.01.13.01.4.01.81v3.84c0 .4 0 .67-.01.8q-.015.195-.06.27c-.03.06-.07.12-.12.17-.04.04-.1.08-.16.11q-.075.045-.27.06c-.13.01-.4.02-.81.02h-3.84c-.4 0-.67-.01-.8-.02a.67.67 0 0 1-.44-.17.671.671 0 0 1-.17-.44c-.01-.13-.02-.4-.02-.8V6.08c0-.41.01-.68.02-.81a.67.67 0 0 1 .17-.44.671.671 0 0 1 .44-.17c.13-.01.4-.01.8-.01m2.92.7h-2c-.36 0-.65.28-.65.65 0 .36.29.65.65.65h2c.37 0 .65-.29.65-.65 0-.37-.28-.65-.65-.65m-1.65 8.73v3.84c0 .4 0 .67-.01.8q-.015.195-.06.27c-.03.06-.07.12-.12.17-.04.04-.1.08-.16.11q-.075.045-.27.06c-.13.01-.4.02-.81.02H6.07c-.4 0-.67-.01-.8-.02a.67.67 0 0 1-.44-.17.671.671 0 0 1-.17-.44c-.01-.13-.02-.4-.02-.8v-3.84c0-.41.01-.68.02-.81a.67.67 0 0 1 .17-.44.671.671 0 0 1 .44-.17c.13-.01.4-.01.8-.01h3.84c.41 0 .68 0 .81.01q.195.015.27.06c.06.03.12.07.16.11.05.05.09.11.12.17q.045.075.06.27c.01.13.01.4.01.81m1.3 3.84v-3.84c0-.41.01-.68.02-.81a.67.67 0 0 1 .17-.44.671.671 0 0 1 .44-.17c.13-.01.4-.01.8-.01h3.84c.41 0 .68 0 .81.01q.195.015.27.06c.06.03.12.07.16.11.05.05.09.11.12.17q.045.075.06.27c.01.13.01.4.01.81v3.84c0 .4 0 .67-.01.8q-.015.195-.06.27c-.03.06-.07.12-.12.17-.04.04-.1.08-.16.11q-.075.045-.27.06c-.13.01-.4.02-.81.02h-3.84c-.4 0-.67-.01-.8-.02a.67.67 0 0 1-.44-.17.671.671 0 0 1-.17-.44c-.01-.13-.02-.4-.02-.8m-3.65-4.57h-2c-.36 0-.65.28-.65.65 0 .36.29.65.65.65h2c.37 0 .65-.29.65-.65 0-.37-.28-.65-.65-.65m6 0h2c.37 0 .65.28.65.65 0 .36-.28.65-.65.65h-2c-.36 0-.65-.29-.65-.65 0-.37.29-.65.65-.65"/></svg>
